X: 30553
T: On The Wings Of A Skorie
R: reel
M: 4/4
K: Eminor
|:BE E/E/E BEcE|BE E/E/E GFGB|ABGB AGFA|GEED EFGA|
BE E/E/E BEcE|BE E/E/E GFGB|ABGB AGFA|1 GEED E2 GA:|2 GEED E2 GF||
|:EBBG AGFA|GEDE GABd|Beed efge|fedf eBgf|
eB B/B/B BAFA|GEDE GABd|fadf efdB|1 ABdf e2 BA:|2 ABdf e4||

